source/images/icons/icon-editorial/journal.svg

<?xml version="1.0" encoding="UTF-8"?>
<svg width="80px" height="80px" viewBox="0 0 80 80" version="1.1" xmlns="http://www.w3.org/2000/svg" xmlns:xlink="http://www.w3.org/1999/xlink">
    <!-- Generator: Sketch 55.2 (78181) - https://sketchapp.com -->
    <title>Illustrative Icons/Journal</title>
    <desc>Created with Sketch.</desc>
    <g id="Illustrative-Icons/Journal" stroke="none" stroke-width="1" fill="none" fill-rule="evenodd">
        <path d="M43.6666667,14.6666667 L23.6666667,14.6666667 L23.6666667,36.3333334 L43.6666667,36.3333334 L43.6666667,14.6666667 Z M40.3333334,33 L27,33 L27,18 L40.3333334,18 L40.3333334,33 Z M48.6666667,29.6666667 L58.6666667,29.6666667 C59.5871413,29.6666667 60.3333334,28.9204746 60.3333334,28 C60.3333334,27.0795254 59.5871413,26.3333334 58.6666667,26.3333334 L48.6666667,26.3333334 C47.7461921,26.3333334 47,27.0795254 47,28 C47,28.9204746 47.7461921,29.6666667 48.6666667,29.6666667 Z M48.6666667,36.3333334 L58.6666667,36.3333334 C59.5871413,36.3333334 60.3333334,35.5871413 60.3333334,34.6666667 C60.3333334,33.7461921 59.5871413,33 58.6666667,33 L48.6666667,33 C47.7461921,33 47,33.7461921 47,34.6666667 C47,35.5871413 47.7461921,36.3333334 48.6666667,36.3333334 Z M25.3333334,43 L58.6666667,43 C59.5871413,43 60.3333334,42.253808 60.3333334,41.3333334 C60.3333334,40.4128588 59.5871413,39.6666667 58.6666667,39.6666667 L25.3333334,39.6666667 C24.4128588,39.6666667 23.6666667,40.4128588 23.6666667,41.3333334 C23.6666667,42.253808 24.4128588,43 25.3333334,43 Z M25.3333334,49.6666667 L58.6666667,49.6666667 C59.5871413,49.6666667 60.3333334,48.9204746 60.3333334,48 C60.3333334,47.0795255 59.5871413,46.3333334 58.6666667,46.3333334 L25.3333334,46.3333334 C24.4128588,46.3333334 23.6666667,47.0795255 23.6666667,48 C23.6666667,48.9204746 24.4128588,49.6666667 25.3333334,49.6666667 Z M25.3333334,56.3333334 L58.6666667,56.3333334 C59.5871413,56.3333334 60.3333334,55.5871413 60.3333334,54.6666667 C60.3333334,53.7461921 59.5871413,53.0000001 58.6666667,53.0000001 L25.3333334,53.0000001 C24.4128588,53.0000001 23.6666667,53.7461921 23.6666667,54.6666667 C23.6666667,55.5871413 24.4128588,56.3333334 25.3333334,56.3333334 Z M65.3333334,8 L18.6666667,8 C17.7461921,8 17,8.74619208 17,9.66666667 L17,63 C17,64.8409492 15.5076158,66.3333334 13.6666667,66.3333334 C11.8257175,66.3333334 10.3333333,64.8409492 10.3333333,63 L10.3333333,43 L13.6666667,43 C14.5871413,43 15.3333333,42.253808 15.3333333,41.3333334 C15.3333333,40.4128588 14.5871413,39.6666667 13.6666667,39.6666667 L8.66666667,39.6666667 C7.74619208,39.6666667 7,40.4128588 7,41.3333334 L7,63 C7,66.6818984 9.98476834,69.6666667 13.6666667,69.6666667 C17.348565,69.6666667 20.3333334,66.6818984 20.3333334,63 L20.3333334,11.3333333 L63.6666667,11.3333333 L63.6666667,63 C63.6666667,64.8409492 62.1742826,66.3333334 60.3333334,66.3333334 L30.3333334,66.3333334 C29.4128588,66.3333334 28.6666667,67.0795255 28.6666667,68 C28.6666667,68.9204747 29.4128588,69.6666667 30.3333334,69.6666667 L60.3333334,69.6666667 C64.0152317,69.6666667 67,66.6818984 67,63 L67,9.66666667 C67,8.74619208 66.253808,8 65.3333334,8 Z M25.3333334,69.6666667 C26.2538079,69.6666667 27,68.9204747 27,68.0000001 C27,67.0795255 26.2538079,66.3333334 25.3333334,66.3333334 C24.4128588,66.3333334 23.6666667,67.0795255 23.6666667,68.0000001 C23.6666667,68.9204747 24.4128588,69.6666667 25.3333334,69.6666667 Z" id="Shape-color" fill="#ADB5BD"></path>
    </g>
</svg>

<svg width="80" height="80">
    <title>
        Illustrative Icons/Journal
    </title>
    <path d="M43.667 14.667h-20v21.666h20V14.667zM40.333 33H27V18h13.333v15zm8.334-3.333h10a1.667 1.667 0 0 0 0-3.334h-10a1.667 1.667 0 1 0 0 3.334zm0 6.666h10a1.667 1.667 0 0 0 0-3.333h-10a1.667 1.667 0 0 0 0 3.333zM25.333 43h33.334a1.667 1.667 0 1 0 0-3.333H25.333a1.667 1.667 0 0 0 0 3.333zm0 6.667h33.334a1.667 1.667 0 0 0 0-3.334H25.333a1.667 1.667 0 1 0 0 3.334zm0 6.666h33.334a1.667 1.667 0 0 0 0-3.333H25.333a1.667 1.667 0 1 0 0 3.333zM65.333 8H18.667C17.747 8 17 8.746 17 9.667V63a3.333 3.333 0 1 1-6.667 0V43h3.334a1.667 1.667 0 1 0 0-3.333h-5c-.92 0-1.667.746-1.667 1.666V63a6.667 6.667 0 1 0 13.333 0V11.333h43.334V63a3.333 3.333 0 0 1-3.334 3.333h-30a1.667 1.667 0 1 0 0 3.334h30A6.667 6.667 0 0 0 67 63V9.667C67 8.747 66.254 8 65.333 8zm-40 61.667a1.667 1.667 0 1 0 0-3.334 1.667 1.667 0 0 0 0 3.334z" fill="#ADB5BD" fill-rule="evenodd"/>
</svg>
